svg/u1f466_1f3ff.svg

<svg viewBox="0 0 128 128" xmlns="http://www.w3.org/2000/svg">
  <path id="ears" d="M26.28,94.88c-7.33,0-13.29-5.71-13.29-12.73s5.96-12.73,13.29-12.73h75.43 c7.33,0,13.29,5.71,13.29,12.73s-5.96,12.73-13.29,12.73L26.28,94.88z" fill="#3C2B24"/>
  <path id="head" d="M64,122.47c-21.41,0-44.46-16.31-44.46-52.12c0-16.64,4.87-31.97,13.71-43.17 C41.51,16.71,52.72,10.71,64,10.71s22.49,6,30.75,16.47c8.84,11.2,13.71,26.53,13.71,43.17c0,16.24-4.79,29.81-13.86,39.22 C86.59,117.89,75.72,122.47,64,122.47z" fill="#70534A"/>
  <path id="nose_1_" d="M69.07,87.13c-0.14-0.06-0.28-0.09-0.42-0.11h-9.3c-0.14,0.02-0.28,0.05-0.42,0.11 c-0.84,0.34-1.31,1.22-0.91,2.14c0.4,0.93,2.25,3.54,5.98,3.54c3.73,0,5.58-2.61,5.98-3.54S69.91,87.47,69.07,87.13z" fill="#33251F"/>
  <g id="eyebrows_1_">
    <path d="M32.18,68.42c4.07-5.82,13.42-6.04,18.48-1.5c0.98,0.88,2.25,2.17,1.61,3.61 c-0.58,1.31-1.98,1.42-3.12,0.92c-3.49-1.53-6.41-1.97-9.9-1.34c-0.9,0.16-1.77,0.42-2.64,0.7c-0.69,0.22-1.31,0.62-2,0.83 C32.73,72.23,31.05,70.12,32.18,68.42z" fill="#1A1717"/>
    <path d="M93.26,71.58C90,70,87.67,69.5,84.24,69.93c-1.7,0.21-3.34,0.66-4.92,1.31 c-1.09,0.45-2.3,0.86-3.22-0.17c-2.41-2.68,3.32-5.81,5.2-6.52c3.55-1.34,7.66-1.01,10.98,0.79c1.38,0.75,2.96,1.85,3.68,3.3 C96.82,70.35,95.06,72.32,93.26,71.58z" fill="#1A1717"/>
  </g>
  <g id="eyes_1_">
    <ellipse cx="42.14" cy="80.34" fill="#1A1717" rx="6.48" ry="6.71"/>
    <ellipse cx="85.86" cy="80.34" fill="#1A1717" rx="6.48" ry="6.71"/>
  </g>
  <path id="mouth_1_" d="M75.06,97.97c-4.19,2.49-17.91,2.49-22.1,0c-2.4-1.43-4.86,0.76-3.86,2.94 c0.98,2.15,8.47,7.13,14.95,7.13c6.47,0,13.87-4.98,14.85-7.13C79.89,98.72,77.47,96.54,75.06,97.97z" fill="#1A1717"/>
  <g id="hair_2_">
    <path id="hair_3_" d="M103.98,18.49c-5.97-6.22-11.63-8.85-12.18-8.92C84.88,6.4,75.95,3.99,64.38,3.99 C13.53,3.99,10,45.63,12.05,63.87c1.25,11.14,5.65,16.47,8.24,18.7c0,0,0.3-12.67,2.97-22.87c2.11-8.08,7.16-14.07,7.16-14.07 s9.17,7.99,26.27,13.17c8.24,2.5,18.81,1.24,18.81,1.24l-5.93-10.49c0,0,9.68,7.13,15.72,8.5c7.73,1.75,13.4,1,13.4,1l-2.84-11.08 c0,0,4.91,3.24,8.59,12.06c3.68,8.83,2.71,23.11,2.71,23.11c2.51-1.8,7.88-7.01,8.96-19.28C117.87,43.67,115.45,31.58,103.98,18.49 z" fill="#232020"/>
    <radialGradient id="hairHighlights_1_" cx="64.1257" cy="53.4573" gradientTransform="matrix(0.9997 0.0227 -0.0211 0.9325 1.1459 2.1575)" gradientUnits="userSpaceOnUse" r="54.5544">
      <stop offset="0.6985" stop-color="#444140" stop-opacity="0"/>
      <stop offset="1" stop-color="#444140"/>
    </radialGradient>
    <path id="hairHighlights" d="M91.8,9.57C84.88,6.4,75.95,3.99,64.38,3.99 C13.53,3.99,10,45.63,12.05,63.87c1.25,11.14,5.65,16.47,8.24,18.7c0,0,0.3-12.67,2.97-22.87c2.11-8.08,7.16-14.07,7.16-14.07 s9.17,7.99,26.27,13.17c8.24,2.5,18.81,1.24,18.81,1.24l-5.93-10.49c0,0,9.68,7.13,15.72,8.5c7.73,1.75,13.4,1,13.4,1l-2.84-11.08 c0,0,4.91,3.24,8.59,12.06c3.68,8.83,2.71,23.11,2.71,23.11c2.51-1.8,7.88-7.01,8.96-19.28c1.76-20.19-0.66-32.28-12.13-45.37 C98.01,12.27,92.35,9.64,91.8,9.57z" fill="url(#hairHighlights_1_)"/>
  </g>
</svg>

<svg viewBox="0 0 128 128" xmlns="http://www.w3.org/2000/svg">
  <defs>
    <radialGradient id="hairHighlights_1_" cx="65.320163" cy="55.741896" gradientTransform="matrix(0.9997 0.0227 -0.0211 0.9325 0 0)" gradientUnits="userSpaceOnUse" r="54.5544">
      <stop offset="0.6985" stop-color="#444140" stop-opacity="0"/>
      <stop offset="1" stop-color="#444140"/>
    </radialGradient>
  </defs>
  <path id="ears" d="M26.28,94.88 C18.95,94.88 12.99,89.17 12.99,82.15 C12.99,75.13 18.95,69.42 26.28,69.42 L101.71,69.42 C109.04,69.42 115,75.13 115,82.15 C115,89.17 109.04,94.88 101.71,94.88 L26.28,94.88 Z" fill="#3C2B24"/>
  <path id="head" d="M64,122.47 C42.59,122.47 19.54,106.16 19.54,70.35 C19.54,53.71 24.41,38.38 33.25,27.18 C41.51,16.71 52.72,10.71 64,10.71 C75.28,10.71 86.49,16.71 94.75,27.18 C103.59,38.38 108.46,53.71 108.46,70.35 C108.46,86.59 103.67,100.16 94.6,109.57 C86.59,117.89 75.72,122.47 64,122.47 Z" fill="#70534A"/>
  <path id="nose_1_" d="M69.07,87.13 C68.93,87.07 68.79,87.04 68.65,87.02 L59.35,87.02 C59.21,87.04 59.07,87.07 58.93,87.13 C58.09,87.47 57.62,88.35 58.02,89.27 C58.42,90.2 60.27,92.81 64,92.81 C67.73,92.81 69.58,90.2 69.98,89.27 C70.38,88.34 69.91,87.47 69.07,87.13 Z" fill="#33251F"/>
  <path d="M32.18,68.42 C36.25,62.6 45.6,62.38 50.66,66.92 C51.64,67.8 52.91,69.09 52.27,70.53 C51.69,71.84 50.29,71.95 49.15,71.45 C45.66,69.92 42.74,69.48 39.25,70.11 C38.35,70.27 37.48,70.53 36.61,70.81 C35.92,71.03 35.3,71.43 34.61,71.64 C32.73,72.23 31.05,70.12 32.18,68.42 Z" fill="#1A1717"/>
  <path d="M93.26,71.58 C90,70 87.67,69.5 84.24,69.93 C82.54,70.14 80.9,70.59 79.32,71.24 C78.23,71.69 77.02,72.1 76.1,71.07 C73.69,68.39 79.42,65.26 81.3,64.55 C84.85,63.21 88.96,63.54 92.28,65.34 C93.66,66.09 95.24,67.19 95.96,68.64 C96.82,70.35 95.06,72.32 93.26,71.58 Z" fill="#1A1717"/>
  <path d="M48.62,80.34 A6.48 6.71 0 1 1 35.66,80.34 A6.48 6.71 0 1 1 48.62,80.34 Z" fill="#1A1717"/>
  <path d="M92.34,80.34 A6.48 6.71 0 1 1 79.38,80.34 A6.48 6.71 0 1 1 92.34,80.34 Z" fill="#1A1717"/>
  <path id="mouth_1_" d="M75.06,97.97 C70.87,100.46 57.15,100.46 52.96,97.97 C50.56,96.54 48.1,98.73 49.1,100.91 C50.08,103.06 57.57,108.04 64.05,108.04 C70.52,108.04 77.92,103.06 78.9,100.91 C79.89,98.72 77.47,96.54 75.06,97.97 Z" fill="#1A1717"/>
  <path id="hair_3_" d="M103.98,18.49 C98.01,12.27 92.35,9.64 91.8,9.57 C84.88,6.4 75.95,3.99 64.38,3.99 C13.53,3.99 10,45.63 12.05,63.87 C13.3,75.01 17.7,80.34 20.29,82.57 C20.29,82.57 20.59,69.9 23.26,59.7 C25.37,51.62 30.42,45.63 30.42,45.63 C30.42,45.63 39.59,53.62 56.69,58.8 C64.93,61.3 75.5,60.04 75.5,60.04 L69.57,49.55 C69.57,49.55 79.25,56.68 85.29,58.05 C93.02,59.8 98.69,59.05 98.69,59.05 L95.85,47.97 C95.85,47.97 100.76,51.21 104.44,60.03 C108.12,68.86 107.15,83.14 107.15,83.14 C109.66,81.34 115.03,76.13 116.11,63.86 C117.87,43.67 115.45,31.58 103.98,18.49 Z" fill="#232020"/>
  <path id="hairHighlights" d="M91.8,9.57 C84.88,6.4 75.95,3.99 64.38,3.99 C13.53,3.99 10,45.63 12.05,63.87 C13.3,75.01 17.7,80.34 20.29,82.57 C20.29,82.57 20.59,69.9 23.26,59.7 C25.37,51.62 30.42,45.63 30.42,45.63 C30.42,45.63 39.59,53.62 56.69,58.8 C64.93,61.3 75.5,60.04 75.5,60.04 L69.57,49.55 C69.57,49.55 79.25,56.68 85.29,58.05 C93.02,59.8 98.69,59.05 98.69,59.05 L95.85,47.97 C95.85,47.97 100.76,51.21 104.44,60.03 C108.12,68.86 107.15,83.14 107.15,83.14 C109.66,81.34 115.03,76.13 116.11,63.86 C117.87,43.67 115.45,31.58 103.98,18.49 C98.01,12.27 92.35,9.64 91.8,9.57 Z" fill="url(#hairHighlights_1_)"/>
</svg>
